icons/plexis/48/notepadqq.svg

<svg viewBox="0 0 48 48" xmlns="http://www.w3.org/2000/svg" xmlns:xlink="http://www.w3.org/1999/xlink">
  <linearGradient id="a" gradientUnits="userSpaceOnUse" x2="0" y1="47" y2="1">
    <stop offset="0" stop-color="#008947"/>
    <stop offset="1" stop-color="#009c51"/>
  </linearGradient>
  <path d="m24 1c22.703 0 23 .297 23 23 0 22.703-.297 23-23 23-22.703 0-23-.297-23-23 0-22.703.297-23 23-23z" fill="url(#a)"/>
  <g transform="matrix(3.543307 0 0 3.543307 -.00000009 -9.0000005)">
    <path d="m4.798 3.669c-.313 0-.564.252-.564.564h-.415c-.083 0-.15.067-.15.15v.265c0 .083.067.15.15.15h.415v.564h-.415c-.083 0-.15.067-.15.15v.265c0 .083.067.15.15.15h.415v.564h-.415c-.083 0-.15.067-.15.15v.265c0 .083.067.15.15.15h.415v.564h-.415c-.083 0-.15.067-.15.15v.265c0 .083.067.15.15.15h.415v.564h-.415c-.083 0-.15.067-.15.15v.265c0 .083.067.15.15.15h.415v.564h-.415c-.083 0-.15.067-.15.15v.265c0 .083.067.15.15.15h.415c0 .313.252.564.564.564h5.08c.313 0 .564-.252.564-.564v-6.209c0-.313-.252-.564-.564-.564h-5.08z" fill-opacity=".098" transform="translate(0 2.2577779)"/>
    <rect fill="#f9f9f9" height="7.338" rx=".564" transform="translate(0 2.2577779)" width="6.209" x="3.951" y="3.387"/>
    <path d="m7.317 3.954a1.411 1.411 0 0 0-.977.414 1.411 1.411 0 0 0  0 1.995 1.411 1.411 0 0 0  1.774.178l.421.421.399-.399-.42-.42a1.411 1.411 0 0 0-.179-1.775 1.411 1.411 0 0 0-1.018-.414m.033.564a.847.847 0 0 1  .586.249.847.847 0 0 1  .165.963l-.364-.364-.399.399.364.364a.847.847 0 0 1-.963-.165.847.847 0 0 1  0-1.197.847.847 0 0 1  .611-.248z" fill="#4d4d4d" transform="translate(0 2.2577779)"/>
    <path d="m7.317 7.341a1.411 1.411 0 0 0-.977.413 1.411 1.411 0 0 0  0 1.995 1.411 1.411 0 0 0  1.774.178l.421.422.399-.4-.42-.419a1.411 1.411 0 0 0-.179-1.776 1.411 1.411 0 0 0-1.018-.413m.033.565a.847.847 0 0 1  .586.248.847.847 0 0 1  .165.963l-.364-.365-.399.399.364.365a.847.847 0 0 1-.963-.165.847.847 0 0 1  0-1.197.847.847 0 0 1  .611-.248" fill="#4d4d4d" transform="translate(0 2.2577779)"/>
    <path d="m4.516 5.644c-.313 0-.564.252-.564.564v6.209c0 .313.252.564.564.564h.564v-7.338h-.564z" fill="#b1c9c9"/>
    <rect fill="#81584a" height=".564" rx=".15" width="1.129" x="3.387" y="8.467"/>
    <rect fill="#81584a" height=".564" rx=".15" width="1.129" x="3.387" y="9.596"/>
    <rect fill="#81584a" height=".564" rx=".15" width="1.129" x="3.387" y="10.724"/>
    <rect fill="#81584a" height=".564" rx=".15" width="1.129" x="3.387" y="11.853"/>
    <rect fill="#81584a" height=".564" rx=".15" width="1.129" x="3.387" y="7.338"/>
    <rect fill="#81584a" height=".564" rx=".15" width="1.129" x="3.387" y="6.209"/>
  </g>
</svg>

<svg xmlns="http://www.w3.org/2000/svg" viewBox="0 0 48 48">
 <defs>
  <linearGradient id="linearGradient3845" y1="47" x2="0" y2="1" gradientUnits="userSpaceOnUse">
   <stop style="stop-color:#008947;stop-opacity:1"/>
   <stop offset="1" style="stop-color:#009c51;stop-opacity:1"/>
  </linearGradient>
 </defs>
 <g>
  
  
  
 </g>
 <g>
  <path d="m 24 1 c 22.703 0 23 0.297 23 23 c 0 22.703 -0.297 23 -23 23 -22.703 0 -23 -0.297 -23 -23 0 -22.703 0.297 -23 23 -23 z" style="fill:url(#linearGradient3845);fill-opacity:1"/>
 </g>
 <g>
  
 </g>
 <g transform="matrix(3.543307,0,0,3.543307,-8.9638233e-8,-9.0000005)">
  <path d="m 4.798 3.669 c -0.313 0 -0.564 0.252 -0.564 0.564 l -0.415 0 c -0.083 0 -0.15 0.067 -0.15 0.15 l 0 0.265 c 0 0.083 0.067 0.15 0.15 0.15 l 0.415 0 0 0.564 -0.415 0 c -0.083 0 -0.15 0.067 -0.15 0.15 l 0 0.265 c 0 0.083 0.067 0.15 0.15 0.15 l 0.415 0 0 0.564 -0.415 0 c -0.083 0 -0.15 0.067 -0.15 0.15 l 0 0.265 c 0 0.083 0.067 0.15 0.15 0.15 l 0.415 0 0 0.564 -0.415 0 c -0.083 0 -0.15 0.067 -0.15 0.15 l 0 0.265 c 0 0.083 0.067 0.15 0.15 0.15 l 0.415 0 0 0.564 -0.415 0 c -0.083 0 -0.15 0.067 -0.15 0.15 l 0 0.265 c 0 0.083 0.067 0.15 0.15 0.15 l 0.415 0 0 0.564 -0.415 0 c -0.083 0 -0.15 0.067 -0.15 0.15 l 0 0.265 c 0 0.083 0.067 0.15 0.15 0.15 l 0.415 0 c 0 0.313 0.252 0.564 0.564 0.564 l 5.08 0 c 0.313 0 0.564 -0.252 0.564 -0.564 l 0 -6.209 c 0 -0.313 -0.252 -0.564 -0.564 -0.564 l -5.08 0 z" transform="translate(0,2.2577779)" style="fill:#000;opacity:1;fill-opacity:0.098;stroke:none;fill-rule:nonzero"/>
  <rect rx="0.564" y="3.387" x="3.951" height="7.338" width="6.209" transform="translate(0,2.2577779)" style="fill:#f9f9f9;opacity:1;fill-opacity:1;stroke:none;fill-rule:nonzero"/>
  <path d="M 7.317 3.954 A 1.411 1.411 0 0 0 6.34 4.368 a 1.411 1.411 0 0 0 0 1.995 1.411 1.411 0 0 0 1.774 0.178 L 8.535 6.962 8.934 6.563 8.514 6.143 A 1.411 1.411 0 0 0 8.335 4.368 1.411 1.411 0 0 0 7.317 3.954 m 0.033 0.564 A 0.847 0.847 0 0 1 7.936 4.767 0.847 0.847 0 0 1 8.101 5.73 L 7.737 5.366 7.338 5.765 7.702 6.129 a 0.847 0.847 0 0 1 -0.963 -0.165 0.847 0.847 0 0 1 0 -1.197 0.847 0.847 0 0 1 0.611 -0.248 z" transform="translate(0,2.2577779)" style="fill:#4d4d4d;opacity:1;fill-opacity:1;stroke:none;fill-rule:nonzero"/>
  <path d="m 7.317 7.341 a 1.411 1.411 0 0 0 -0.977 0.413 1.411 1.411 0 0 0 0 1.995 1.411 1.411 0 0 0 1.774 0.178 L 8.535 10.349 8.934 9.949 8.514 9.53 A 1.411 1.411 0 0 0 8.335 7.754 1.411 1.411 0 0 0 7.317 7.341 M 7.35 7.906 A 0.847 0.847 0 0 1 7.936 8.154 0.847 0.847 0 0 1 8.101 9.117 L 7.737 8.752 7.338 9.151 7.702 9.516 a 0.847 0.847 0 0 1 -0.963 -0.165 0.847 0.847 0 0 1 0 -1.197 A 0.847 0.847 0 0 1 7.35 7.906" transform="translate(0,2.2577779)" style="fill:#4d4d4d;opacity:1;fill-opacity:1;stroke:none;fill-rule:nonzero"/>
  <path d="m 4.516 5.644 c -0.313 0 -0.564 0.252 -0.564 0.564 l 0 6.209 c 0 0.313 0.252 0.564 0.564 0.564 l 0.564 0 0 -7.338 -0.564 0 z" style="fill:#b1c9c9;opacity:1;fill-opacity:1;stroke:none;fill-rule:nonzero"/>
  <rect width="1.129" height="0.564" x="3.387" y="8.467" rx="0.15" style="fill:#81584a;fill-opacity:1;stroke:none"/>
  <rect rx="0.15" y="9.596" x="3.387" height="0.564" width="1.129" style="fill:#81584a;fill-opacity:1;stroke:none"/>
  <rect width="1.129" height="0.564" x="3.387" y="10.724" rx="0.15" style="fill:#81584a;fill-opacity:1;stroke:none"/>
  <rect rx="0.15" y="11.853" x="3.387" height="0.564" width="1.129" style="fill:#81584a;fill-opacity:1;stroke:none"/>
  <rect rx="0.15" y="7.338" x="3.387" height="0.564" width="1.129" style="fill:#81584a;fill-opacity:1;stroke:none"/>
  <rect width="1.129" height="0.564" x="3.387" y="6.209" rx="0.15" style="fill:#81584a;fill-opacity:1;stroke:none"/>
 </g>
</svg>
